X: 20994
M: 3/4
L: 1/8
K: G
d^c=c |\
edBDGD | GDFcBA | GFEDEF | G3 |]
gfe |\
^decgfe | edBDGD | edcDGD | edBgfg |\
^decgfe | edBDGD | edcDFD | G3 |]


